Numix-GalliumOS/64/mimetypes/image-x-compressed-xcf.svg

<svg xmlns="http://www.w3.org/2000/svg" xmlns:xlink="http://www.w3.org/1999/xlink" width="64px" height="64px" viewBox="0 0 64 64" version="1.1">
<g id="surface1">
<path style=" stroke:none;fill-rule:nonzero;fill:rgb(60.392157%,46.666667%,23.529412%);fill-opacity:1;" d="M 10.671875 0 C 9.296875 0 8 1.355469 8 2.789062 L 8 61.210938 C 8 62.566406 9.375 64 10.671875 64 L 53.328125 64 C 54.625 64 56 62.566406 56 61.210938 L 56 18 L 38 0 Z M 10.671875 0 "/>
<path style=" stroke:none;fill-rule:nonzero;fill:rgb(0%,0%,0%);fill-opacity:0.196078;" d="M 42 18 L 56 32 L 56 18 Z M 42 18 "/>
<path style=" stroke:none;fill-rule:nonzero;fill:rgb(100%,100%,100%);fill-opacity:0.392157;" d="M 38 0 L 55.984375 18 L 40.757812 18 C 39.410156 18 38 16.574219 38 15.226562 Z M 38 0 "/>
<path style=" stroke:none;fill-rule:evenodd;fill:rgb(97.647059%,97.647059%,97.647059%);fill-opacity:1;" d="M 18 0 L 24 0 L 24 6 L 18 6 Z M 18 0 "/>
<path style=" stroke:none;fill-rule:evenodd;fill:rgb(97.647059%,97.647059%,97.647059%);fill-opacity:1;" d="M 24 6 L 30 6 L 30 12 L 24 12 Z M 24 6 "/>
<path style=" stroke:none;fill-rule:evenodd;fill:rgb(97.647059%,97.647059%,97.647059%);fill-opacity:1;" d="M 18 12 L 24 12 L 24 18 L 18 18 Z M 18 12 "/>
<path style=" stroke:none;fill-rule:evenodd;fill:rgb(97.647059%,97.647059%,97.647059%);fill-opacity:1;" d="M 18 20 L 30 20 L 30 32 L 18 32 Z M 18 20 "/>
<path style=" stroke:none;fill-rule:nonzero;fill:rgb(100%,100%,100%);fill-opacity:1;" d="M 42.054688 34.6875 C 41.953125 34.734375 41.859375 34.898438 41.773438 35.164062 C 41.546875 35.867188 39.921875 40.726562 30.710938 40.960938 C 26.320312 41.070312 24.453125 37.148438 24.453125 37.148438 L 24.34375 42.195312 C 24.34375 42.195312 24.8125 43.3125 23.875 44.484375 C 23.820312 44.40625 23.789062 44.3125 23.734375 44.234375 C 23.398438 43.757812 23 43.359375 22.578125 43.0625 C 22.09375 42.71875 21.585938 42.492188 21.085938 42.414062 C 20.515625 42.328125 19.953125 42.453125 19.515625 42.78125 C 19.070312 43.101562 18.8125 43.601562 18.710938 44.179688 C 18.625 44.6875 18.65625 45.226562 18.828125 45.804688 C 18.96875 46.304688 19.203125 46.8125 19.539062 47.289062 C 19.898438 47.789062 20.34375 48.242188 20.8125 48.546875 C 21.335938 48.898438 21.890625 49.109375 22.4375 49.140625 C 22.609375 49.148438 22.78125 49.109375 22.9375 49.078125 C 26.46875 51.929688 33.484375 54.578125 38.132812 51.546875 C 38.234375 51.578125 38.335938 51.625 38.4375 51.65625 C 38.4375 51.710938 38.421875 51.757812 38.4375 51.796875 L 38.65625 51.710938 C 38.695312 51.726562 38.726562 51.757812 38.765625 51.773438 C 38.773438 51.773438 38.789062 51.765625 38.796875 51.773438 L 38.875 51.851562 L 40.976562 52.609375 C 40.890625 53.351562 41.25 54.1875 42.164062 54.546875 C 43.804688 55.179688 45.335938 56 45.335938 56 C 44.546875 53.296875 44.265625 51.132812 42.21875 51.320312 C 41.835938 51.359375 41.546875 51.515625 41.335938 51.742188 L 39.484375 50.539062 L 39.40625 50.539062 L 39.375 50.507812 C 41.867188 48.023438 43.320312 43.351562 42.4375 35.21875 C 42.382812 34.8125 42.21875 34.601562 42.054688 34.6875 Z M 42.054688 34.6875 "/>
</g>
</svg>

<svg xmlns="http://www.w3.org/2000/svg" viewBox="0 0 64 64">
 <g>
  <path d="m 10.672 0 c -1.375 0 -2.672 1.355 -2.672 2.789 l 0 58.42 c 0 1.355 1.375 2.789 2.672 2.789 l 42.656 0 c 1.297 0 2.672 -1.434 2.672 -2.789 l 0 -43.21 l -18 -18 m -27.328 0" style="fill:#9a773c;fill-opacity:1;stroke:none;fill-rule:nonzero"/>
  <path d="m 42 18 l 14 14 l 0 -14 m -14 0" style="fill:#000;fill-opacity:0.196;stroke:none;fill-rule:nonzero"/>
  <path d="m 38 0 l 17.984 18 l -15.227 0 c -1.348 0 -2.758 -1.426 -2.758 -2.773 m 0 -15.227" style="fill:#fff;fill-opacity:0.392;stroke:none;fill-rule:nonzero"/>
  <path d="m 18 0 l 6 0 l 0 6 l -6 0 m 0 -6" style="fill:#f9f9f9;fill-opacity:1;stroke:none;fill-rule:evenodd"/>
  <path d="m 24 6 l 6 0 l 0 6 l -6 0 m 0 -6" style="fill:#f9f9f9;fill-opacity:1;stroke:none;fill-rule:evenodd"/>
  <path d="m 18 12 l 6 0 l 0 6 l -6 0 m 0 -6" style="fill:#f9f9f9;fill-opacity:1;stroke:none;fill-rule:evenodd"/>
  <path d="m 18 20 l 12 0 l 0 12 l -12 0 m 0 -12" style="fill:#f9f9f9;fill-opacity:1;stroke:none;fill-rule:evenodd"/>
  <path d="m 42.05 34.688 c -0.102 0.047 -0.195 0.211 -0.281 0.477 c -0.227 0.703 -1.852 5.563 -11.06 5.797 c -4.391 0.109 -6.258 -3.813 -6.258 -3.813 l -0.109 5.05 c 0 0 0.469 1.117 -0.469 2.289 c -0.055 -0.078 -0.086 -0.172 -0.141 -0.25 c -0.336 -0.477 -0.734 -0.875 -1.156 -1.172 c -0.484 -0.344 -0.992 -0.57 -1.492 -0.648 c -0.57 -0.086 -1.133 0.039 -1.57 0.367 c -0.445 0.32 -0.703 0.82 -0.805 1.398 c -0.086 0.508 -0.055 1.047 0.117 1.625 c 0.141 0.5 0.375 1.01 0.711 1.484 c 0.359 0.5 0.805 0.953 1.273 1.258 c 0.523 0.352 1.078 0.563 1.625 0.594 c 0.172 0.008 0.344 -0.031 0.5 -0.063 c 3.531 2.852 10.547 5.5 15.195 2.469 c 0.102 0.031 0.203 0.078 0.305 0.109 c 0 0.055 -0.016 0.102 0 0.141 l 0.219 -0.086 c 0.039 0.016 0.07 0.047 0.109 0.063 c 0.008 0 0.023 -0.008 0.031 0 l 0.078 0.078 l 2.102 0.758 c -0.086 0.742 0.273 1.578 1.188 1.938 c 1.641 0.633 3.172 1.453 3.172 1.453 c -0.789 -2.703 -1.07 -4.867 -3.117 -4.68 c -0.383 0.039 -0.672 0.195 -0.883 0.422 l -1.852 -1.203 l -0.078 0 l -0.031 -0.031 c 2.492 -2.484 3.945 -7.156 3.063 -15.289 c -0.055 -0.406 -0.219 -0.617 -0.383 -0.531 m 0 0" style="fill:#fff;fill-opacity:1;stroke:none;fill-rule:nonzero"/>
 </g>
</svg>
